X: 6
T: The Frog In The Well
R: jig
M: 6/8
L: 1/8
K: Emin
|:D|~E3 GFE|BEE GFE|~D3 FED|FAG FED |
~E3 GFE|BEF G2A|BdB BAF|GEE ~E2:|
|:B|efe ~B3|e2f gfe|fdd add|bdd add |
efe ~B3|e2f gfe|edB BAF|GEE ~E2:|


Tune 1395	Setting 26047

